icon_installer/data/icons/scalable/actions/show-image-adjust-highlights-symbolic.svg

<?xml version="1.0" encoding="UTF-8"?>
<svg height="16px" viewBox="0 0 16 16" width="16px" xmlns="http://www.w3.org/2000/svg">
    <path d="m 8 0 c -4.410156 0 -8 3.589844 -8 8 s 3.589844 8 8 8 s 8 -3.589844 8 -8 s -3.589844 -8 -8 -8 z m 0 2 c 1.234375 0 2.382812 0.367188 3.332031 1 h -2.832031 c -0.277344 0 -0.5 0.222656 -0.5 0.5 s 0.222656 0.5 0.5 0.5 h 3.984375 c 0.269531 0.304688 0.511719 0.640625 0.71875 1 h -5.703125 c -0.277344 0 -0.5 0.222656 -0.5 0.5 s 0.222656 0.5 0.5 0.5 h 6.164062 c 0.109376 0.320312 0.195313 0.65625 0.253907 1 h -7.417969 c -0.277344 0 -0.5 0.222656 -0.5 0.5 s 0.222656 0.5 0.5 0.5 h 7.5 c 0 0.339844 -0.027344 0.675781 -0.082031 1 h -7.417969 c -0.277344 0 -0.5 0.222656 -0.5 0.5 s 0.222656 0.5 0.5 0.5 h 7.164062 c -0.125 0.351562 -0.277343 0.683594 -0.460937 1 h -5.703125 c -0.277344 0 -0.5 0.222656 -0.5 0.5 s 0.222656 0.5 0.5 0.5 h 4.984375 c -0.339844 0.378906 -0.726563 0.71875 -1.152344 1 h -2.832031 c -0.277344 0 -0.5 0.222656 -0.5 0.5 v 0.5 c -3.332031 0 -6 -2.667969 -6 -6 s 2.667969 -6 6 -6 z m 0 0" fill="#222222"/>
</svg>

<svg xmlns="http://www.w3.org/2000/svg" width="16" height="16"><path fill="#222" d="M8 0C3.59 0 0 3.59 0 8s3.59 8 8 8 8-3.59 8-8-3.59-8-8-8zm0 2a5.99 5.99 0 0 1 3.332 1H8.5a.499.499 0 1 0 0 1h3.984c.27.305.512.64.72 1H7.5a.499.499 0 1 0 0 1h6.164c.11.32.195.656.254 1H6.5a.499.499 0 1 0 0 1H14c0 .34-.027.676-.082 1H6.5a.499.499 0 1 0 0 1h7.164a5.962 5.962 0 0 1-.46 1H7.5a.499.499 0 1 0 0 1h4.984a5.99 5.99 0 0 1-1.152 1H8.5c-.277 0-.5.223-.5.5v.5c-3.332 0-6-2.668-6-6s2.668-6 6-6zm0 0"/></svg>
